CSETWebApi/CSETWeb_Api/CSETWeb_ApiCore/Diagram/src/main/webapp/img/lib/ibm/vpc/BareMetalServer.svg

<?xml version="1.0" encoding="UTF-8" standalone="no"?>
<!-- Generated by Microsoft Visio, SVG Export BareMetalServer.svg Page-1 -->

<svg
   xmlns:v="http://schemas.microsoft.com/visio/2003/SVGExtensions/"
   xmlns:dc="http://purl.org/dc/elements/1.1/"
   xmlns:cc="http://creativecommons.org/ns#"
   xmlns:rdf="http://www.w3.org/1999/02/22-rdf-syntax-ns#"
   xmlns:svg="http://www.w3.org/2000/svg"
   xmlns="http://www.w3.org/2000/svg"
   xmlns:sodipodi="http://sodipodi.sourceforge.net/DTD/sodipodi-0.dtd"
   xmlns:inkscape="http://www.inkscape.org/namespaces/inkscape"
   width="1.0416666in"
   height="1.0416666in"
   viewBox="0 0 74.99995 74.999981"
   xml:space="preserve"
   class="st2"
   version="1.1"
   id="svg1220"
   sodipodi:docname="BareMetalServer.svg"
   style="font-size:12px;overflow:visible;color-interpolation-filters:sRGB;fill:none;fill-rule:evenodd;stroke-linecap:square;stroke-miterlimit:3"
   inkscape:version="0.92.3 (2405546, 2018-03-11)"><metadata
   id="metadata1226"><rdf:RDF><cc:Work
       rdf:about=""><dc:format>image/svg+xml</dc:format><dc:type
         rdf:resource="http://purl.org/dc/dcmitype/StillImage" /><dc:title></dc:title></cc:Work></rdf:RDF></metadata><defs
   id="defs1224">
		
		
		
	
			
			
			
			
		
				
				
				
			
					<defs
   id="defs1171">
						<path
   id="mfid20"
   d="m 639960,101770 c 146430,135680 146430,355690 0,491360 -146390,135720 -383760,135720 -530150,0 -146426,-135670 -146426,-355680 0,-491360 146390,-135707 383760,-135707 530150,0 z"
   inkscape:connector-curvature="0" />
					</defs>
					
				
						
						
						
						
					
							
						
							
						
							
						
							
						</defs><sodipodi:namedview
   pagecolor="#ffffff"
   bordercolor="#666666"
   borderopacity="1"
   objecttolerance="10"
   gridtolerance="10"
   guidetolerance="10"
   inkscape:pageopacity="0"
   inkscape:pageshadow="2"
   inkscape:window-width="1920"
   inkscape:window-height="1017"
   id="namedview1222"
   showgrid="false"
   fit-margin-top="0"
   fit-margin-left="0"
   fit-margin-right="0"
   fit-margin-bottom="0"
   inkscape:zoom="4.679901"
   inkscape:cx="3.2498056"
   inkscape:cy="47.914478"
   inkscape:window-x="-8"
   inkscape:window-y="-8"
   inkscape:window-maximized="1"
   inkscape:current-layer="svg1220" />
	<v:documentProperties
   v:langID="1033"
   v:viewMarkup="false" />

	<style
   type="text/css"
   id="style1162">
	<![CDATA[
		.st1 {fill:none;stroke:none;stroke-linecap:round;stroke-linejoin:round;stroke-width:0.75}
		.st2 {fill:none;fill-rule:evenodd;font-size:12px;overflow:visible;stroke-linecap:square;stroke-miterlimit:3}
	]]>
	</style><circle
   style="font-size:12px;overflow:visible;color-interpolation-filters:sRGB;fill:#8dc53f;fill-opacity:1;fill-rule:evenodd;stroke:none;stroke-width:1.00000024;stroke-linecap:square;stroke-miterlimit:3"
   r="37.499981"
   cx="37.499981"
   cy="37.499981"
   id="circle1396" />

	
<path
   id="path1993-1-4"
   style="font-size:12px;overflow:visible;opacity:1;color-interpolation-filters:sRGB;vector-effect:none;fill:#ffffff;fill-opacity:1;fill-rule:evenodd;stroke:none;stroke-width:2.99930978;stroke-linecap:butt;stroke-linejoin:miter;stroke-miterlimit:3;stroke-dasharray:none;stroke-dashoffset:0;stroke-opacity:1;paint-order:normal"
   d="M 19.096155,49.792997 V 62.553244 H 56.686956 V 49.792997 Z m 11.091791,3.328124 a 3.0526425,3.0526425 0 0 1 3.052733,3.052733 3.0526425,3.0526425 0 0 1 -3.052733,3.051268 3.0526425,3.0526425 0 0 1 -3.052733,-3.051268 3.0526425,3.0526425 0 0 1 3.052733,-3.052733 z M 19.096154,13.870322 V 26.63057 H 56.686957 V 13.870322 Z m 11.091792,3.328124 a 3.0526426,3.0526426 0 0 1 3.052733,3.052733 3.0526426,3.0526426 0 0 1 -3.052733,3.051268 3.0526426,3.0526426 0 0 1 -3.052733,-3.051268 3.0526426,3.0526426 0 0 1 3.052733,-3.052733 z M 19.096154,31.831659 V 44.591908 H 56.686957 V 31.831659 Z m 11.091792,3.328124 a 3.0526426,3.0526426 0 0 1 3.052733,3.052733 3.0526426,3.0526426 0 0 1 -3.052733,3.051268 3.0526426,3.0526426 0 0 1 -3.052733,-3.051268 3.0526426,3.0526426 0 0 1 3.052733,-3.052733 z"
   inkscape:connector-curvature="0" /></svg>

<svg xmlns="http://www.w3.org/2000/svg" width="100.032" height="100.032" viewBox="0 0 75 75" fill="none" fill-rule="evenodd" overflow="visible" stroke-linecap="square" stroke-miterlimit="3" color-interpolation-filters="sRGB"><style><![CDATA[.B{color-interpolation-filters:sRGB}]]></style><circle r="37.5" cx="37.5" cy="37.5" fill="#8dc53f" class="B"/><path d="M19.096 49.793v12.76h37.59v-12.76zm11.092 3.328a3.053 3.053 0 0 1 3.053 3.053 3.053 3.053 0 1 1-6.105 0 3.053 3.053 0 0 1 3.053-3.053zM19.096 13.87v12.76h37.59V13.87zm11.092 3.328a3.053 3.053 0 0 1 3.053 3.053 3.053 3.053 0 0 1-6.105 0 3.053 3.053 0 0 1 3.053-3.053zM19.096 31.832v12.76h37.59v-12.76zm11.092 3.328a3.053 3.053 0 0 1 3.053 3.053 3.053 3.053 0 0 1-6.105 0 3.053 3.053 0 0 1 3.053-3.053z" fill="#fff" paint-order="normal" class="B"/></svg>
